X:657
T:The full rigged ship
R:Jig
O:Scotland
S:From Scottish Dance Class Handout...
B:?
Z:Transcription, chords:Mike Long
M:6/8
L:1/8
K:C
"Am"e2a aea|aea aba|"Em"e2^f "G"g2g|"G"gag "D"^f2d|\
"Am"e2a aea|aea aba|"Em"g2e "G"dBG|"Am"A3 A3:|
|:"Am"efe d2B|A2B c3|"G"B2G B2G|"Em"Bcd E3|\
"Am"efe d2B|A2B c2d|"Am"efe "G"dBG|"Am"A3 A3:|
|:"Em"EGE EGE|"Em"EGE "C"c3|"Em"EGE E2D|"Em"E2F "Am"GEC|\
"Em"EGE EGE|"Em"EGE "C"c2d|"Em"efe "G"dBG|"Am"A3 A3:|
